src/assets/edit.svg

<svg width="20" height="20" viewBox="0 0 20 20" fill="none" xmlns="http://www.w3.org/2000/svg">
<g clip-path="url(#clip0_1_848)">
<path d="M2.5 14.375V17.5H5.625L14.8417 8.28334L11.7167 5.15834L2.5 14.375ZM17.2583 5.86667C17.5833 5.54167 17.5833 5.01667 17.2583 4.69167L15.3083 2.74167C14.9833 2.41667 14.4583 2.41667 14.1333 2.74167L12.6083 4.26667L15.7333 7.39167L17.2583 5.86667Z" fill="black"/>
</g>
<defs>
<clipPath id="clip0_1_848">
<rect width="20" height="20" fill="white"/>
</clipPath>
</defs>
</svg>

<svg xmlns="http://www.w3.org/2000/svg" width="20" height="20" fill="none"><g clip-path="url(#a)"><path fill="#000" d="M2.5 14.375V17.5h3.125l9.217-9.217-3.125-3.125L2.5 14.375Zm14.758-8.508a.83.83 0 0 0 0-1.175l-1.95-1.95a.83.83 0 0 0-1.175 0l-1.525 1.525 3.125 3.125 1.525-1.525Z"/></g><defs><clipPath id="a"><path fill="#fff" d="M0 0h20v20H0z"/></clipPath></defs></svg>
